data/playwrite-cz.svg

<svg width="104.89" height="26.586" viewBox="0 0 104.89 26.586" xmlns="http://www.w3.org/2000/svg"><path transform="translate(0 19.74) scale(.014 -.014)" d="m488 374q-17-1-22 11t-1 28q5 16 14 27t26 11q65 2 128.5 14.5t119.5 36.5 99 59 67.5 82 24.5 106q0 43-18.5 75t-52 53-80.5 31.5-104 10.5q-69 0-141-16t-140-50-129-90q-17-16-31.5-12.5t-25.5 15.5q-10 10-10 24t15 29q46 48 103 82t119 56 125 32.5 121 10.5q86 0 150-18t106-51.5 63.5-79 21.5-101.5q0-74-30-133t-83-103-123-74-149.5-46-162.5-20zm-347-391q-41 0-73.5 18.5t-54 48.5-30.5 62q-6 19-1.5 32t23.5 19q19 7 30 1t19-23q11-24 25-41t30.5-24.5 36.5-7.5q36 0 60.5 28t48.5 102l193 602q5 14 17 20.5t34 6.5q23 0 34-6.5t5-23.5l-192-598q-22-66-50-115t-66-75-89-26z"/><path transform="translate(12.754 19.74) scale(.014 -.014)" d="m-159-17q-19 0-25 11.5t-2 26 16 26 29 11.5q29 0 67.5 19t83.5 52.5 93 79.5 96 100 93 112.5 83.5 118.5 67 118 45 111 16.5 97q0 15 13 22.5t30 7.5 30-7.5 13-22.5q0-46-18-103t-50.5-120-76.5-129-95.5-130.5-106.5-123.5-111-109.5-109-88-99.5-58.5-82.5-21zm322 1q-40 0-60 16t-25.5 42 0 56.5 14.5 59.5l213 659q32 99 74.5 143t102.5 44q33 0 57.5-17.5t37.5-48 13-72.5q0-19-13-28t-30-9-30 9-13 28q0 17-3.5 29.5t-11 19.5-20.5 7-26-10.5-26-36.5-29-73l-223-691q-4-14-5.5-26t2.5-18.5 16-6.5 24 7 22.5 18.5 20.5 24.5q7 9 16.5 12t23.5-7q17-10 18-20.5t-4-20.5q-9-17-28.5-38t-46-36.5-61.5-15.5z"/><path transform="translate(18.27 19.74) scale(.014 -.014)" d="m169-17q-40 0-69 19t-44.5 54.5-15.5 84.5q0 45 13 96.5t39 101 65.5 90.5 91.5 65.5 117 24.5q32 0 64-9t60-25l1 4q6 17 16 21.5t28 4.5q31 0 39.5-9.5t1.5-29.5l-121-365q-4-14-5.5-26t3-18.5 15.5-6.5q13 0 24.5 7t22.5 18.5 21 24.5q7 9 16.5 12t22.5-7q17-10 18.5-20.5t-3.5-20.5q-10-17-29-38t-45.5-36.5-61.5-15.5q-32 0-50.5 11.5t-26 30-8 40.5 3.5 44q1 2 1.5 4.5t0.5 5.5q-37-50-73.5-80t-70-43.5-62.5-13.5zm-39 170q0-28 8-48.5t23-31 37-10.5q34 0 72 27.5t78.5 80 79.5 127.5l40 119q-29 14-55 18.5t-51 4.5q-48 0-85.5-19.5t-65-51.5-45.5-70.5-27-76.5-9-69z"/><path transform="translate(26.978 19.74) scale(.014 -.014)" d="m426-2q20 13 39 24t37.5 21.5 35.5 19 31 14.5q15 7 24 0.5t12-20-1-27-15-19.5q-19-10-40.5-22t-43.5-24.5-44-26.5-44-27zm-287-502q-58 0-92.5 32t-34.5 81q0 41 16.5 77t47 70.5 74 68.5 98.5 68q21 14 40.5 26.5t39.5 24.5 41 25l51 160q-26-35-53-62t-55.5-45.5-57-28-57.5-9.5q-51 0-80.5 23.5t-35.5 68 15 106.5l73 224q6 17 1 26.5t-19 9.5q-12 0-25-7.5t-27.5-24-34.5-43.5q-10-13-19-17.5t-26 1.5q-20 8-21.5 20.5t6.5 26.5q19 33 43 60t53.5 43 65.5 16q34 0 54-12t28.5-33 7-47.5-10.5-54.5l-65-200q-11-33-11-57.5t14-37 45-12.5q30 0 63.5 20t68 56.5 67.5 86.5 60 111l48 146q7 20 16.5 26t28.5 6q31 0 39.5-9.5t1.5-29.5l-232-712q-24-72-49-123.5t-55-83.5-66-46.5-80-14.5zm14 77q30 0 57 21.5t51 64 43 108.5l32 99q-12-7-23-14.5t-22-14-22-14.5q-41-28-72.5-54t-53-50.5-32-48-10.5-47.5q0-16 6-27t18-17 28-6z"/><path transform="translate(36.288 19.74) scale(.014 -.014)" d="m203-19q-47 0-74 18.5t-37 50-7.5 69.5 15.5 76l69 211q6 17 1 26.5t-19 9.5q-12 0-25-7.5t-27.5-24-34.5-43.5q-10-13-19-17.5t-26 1.5q-20 8-21.5 20.5t6.5 26.5q19 33 43 60t53.5 43 65.5 16q34 0 54.5-12t28.5-33 6.5-47.5-10.5-54.5l-60-186q-9-29-12.5-57.5t8-47 45.5-18.5q25 0 51.5 14.5t51.5 41 47.5 62.5 38.5 77l74 228q5 17 14 24.5t31 7.5q32 0 39-9.5t1-28.5l-80-255q-8-24-14.5-52.5t-5.5-53.5 14-40.5 44-15.5q36 0 68.5 20.5t59 54.5 45.5 75.5 30 85.5 11 83q0 14-1 28.5t-2.5 28.5-4.5 27q-4 19 0 31t14.5 18 26.5 6q18 0 28.5-11t16.5-37q3-13 5-27t3-28.5 1-30.5q0-48-14.5-103t-41.5-108-66-97-88-70-108-26q-46 0-74 16t-41.5 41.5-15.5 56.5q-23-35-51-61t-60-39.5-70-13.5z"/><path transform="translate(48.72 19.74) scale(.014 -.014)" d="m-159-17q-19 0-25 11.5t-2.5 26 15.5 26 31 11.5q34 0 70.5 23t75 69.5 79.5 119 85 171.5l57-26q-52-122-98.5-204.5t-92.5-133-93.5-72.5-101.5-22zm558 1q-37 0-57.5 13t-27.5 34.5-4.5 46.5 10.5 50q7 21 19.5 51.5t27 65 28.5 69 22 64.5 1.5 40.5-25.5 10.5q-24 0-53.5-10t-60.5-19.5-62-9.5q-20 0-34.5 14.5t-22 37.5-7.5 48q0 23 7.5 44t23 34.5 39.5 13.5q23 0 34-13.5t11-33.5q0-15-5-32.5t-13-33.5q15 0 44 11t65.5 22 71.5 11q30 0 50.5-14t27-44.5-7.5-82.5q-7-28-21-62.5t-29.5-71.5-29.5-71-22-61q-9-26-3.5-36t19.5-10q12 0 23.5 7t22 18.5 20.5 24.5q7 9 16 12t23-7q17-10 18.5-20.5t-3.5-20.5q-10-17-29-38t-45.5-36.5-61.5-15.5z"/><path transform="translate(56.672 19.74) scale(.014 -.014)" d="m135-16q-62 0-81 44.5t8 126.5l107 328q6 20 15.5 26t29.5 6q31 0 39.5-9.5t1.5-29.5l-118-362q-9-27-5.5-40.5t20.5-13.5q12 0 23 6.5t21.5 18 21.5 25.5q7 9 16.5 12t22.5-7q17-10 18.5-20.5t-4.5-20.5q-15-26-36-46.5t-46-32-54-11.5zm141 685q-20 0-34.5 13t-14.5 38q0 27 18 51t55 24q20 0 34.5-12.5t14.5-38.5q0-27-17.5-51t-55.5-24z"/><path transform="translate(60.872 19.74) scale(.014 -.014)" d="m-129-17q-15 0-21.5 11.5t-4 26 13.5 26 29 11.5q24 0 61.5 28t83.5 77 97 113.5 103 138 101.5 150.5 93 150.5 77 138 53.5 113.5q7 22 17 27.5t28 5.5q32 0 40.5-9.5t1.5-29.5l-275-852q45 13 93.5 40.5t102 70.5 114.5 100q5 6 14.5 8t20.5-9q12-11 11.5-20t-6.5-15q-59-59-120-109.5t-123.5-85.5-128.5-47l-10-31q-4-13-14-19.5t-33-6.5q-16 0-29.5 7t-8.5 26l6 20q-26 4-47.5 14t-34 28-12.5 41q0 29 19 50t53 21q20 0 36.5-7.5t26.5-19.5l160 497q-47-84-98-167t-104-159-105.5-140.5-102.5-112-95-74-84-26.5zm364 139q0-6 5-10.5t14.5-7.5 22.5-4q2 15-8 24t-21 9q-13 0-13-11z"/><path transform="translate(69.692 19.74) scale(.014 -.014)" d="m243-18q-36 0-66 12t-54 33-41 50-26 64-9 74q0 38 8.5 79.5t27 81.5 46.5 72.5 66 51.5 87 19q37 0 63.5-14.5t40.5-40 14-59.5q0-53-27.5-105t-73-98.5-99.5-84.5q-55-40-116-70t-119.5-47-107.5-17q-14 0-20.5 11.5t-4.5 26 13.5 26 32.5 11.5q40 0 88.5 16t99 43 94.5 61q39 29 73 63.5t55.5 71.5 21.5 72q0 26-11.5 40t-35.5 14q-31 0-55-22.5t-40-56.5-24.5-72-8.5-70q0-34 9-62.5t26-49.5 39.5-32.5 50.5-11.5q27 0 53 11t51 30 47 40q13 13 27.5 10.5t24.5-13.5q12-12 14-25t-11-27q-35-39-71.5-62t-74.5-33.5-77-10.5z"/><path transform="translate(80.108 19.74) scale(.014 -.014)" d="m464-19q-74 0-132.5 24.5t-100 71-63.5 112.5-22 149q0 69 16.5 144t49 149.5 80 140.5 110.5 117.5 141 81 171 29.5q62 0 112.5-13.5t89.5-39.5 65-65q9-11 4.5-20t-19.5-21q-14-10-24-10.5t-24 12.5q-35 35-88 53.5t-131 18.5q-68 0-128-24t-111-66.5-92-98-69-119-43.5-128.5-15.5-126q0-70 14.5-123.5t44-90 74-55 105.5-18.5q40 0 75.5 11t69.5 32.5 68 52 71 70.5q12 12 23.5 8t23.5-16q13-14 14.5-24.5t-10.5-24.5q-65-74-126.5-116.5t-117.5-60-105-17.5z"/><path transform="translate(92.008 19.74) scale(.014 -.014)" d="m536-17q-41 0-81 9t-79.5 21-77 21-75.5 9q-29 0-56-6t-53-17.5-55-27.5q-15-8-30.5-8t-25.5 14q-8 12-5.5 22t16.5 25l800 827q-10-3-19.5-4t-19.5-1q-32 0-60.5 7.5t-54.5 17.5-54 17-60 7q-31 0-66-11.5t-70.5-32.5-68.5-51q-16-14-29.5-13t-26.5 15q-14 14-13 27t16 28q44 39 86.5 66.5t86 42 91.5 14.5q40 0 71.5-8t59.5-19 57-19 63-8q40 0 72 8.5t69 27.5q12 7 22.5 6t20.5-12q11-11 10.5-22t-19.5-30l-776-805q12 4 26 5.5t29 1.5q39 0 75-9.5t72-21 72.5-21 75.5-9.5q51 0 94.5 20t80 56.5 65.5 87.5q8 13 20.5 15.5t29.5-5.5q20-10 24.5-22t-4.5-27q-40-69-88-115.5t-107-69.5-131-23z"/></svg>

<?xml version="1.0" encoding="utf-8" ?>
<svg baseProfile="tiny" height="100%" version="1.2" width="100%" xmlns="http://www.w3.org/2000/svg" xmlns:ev="http://www.w3.org/2001/xml-events" xmlns:xlink="http://www.w3.org/1999/xlink"><defs /><g><path d="M488 374Q471 373 466.0 385.0Q461 397 465 413Q470 429 479.0 440.0Q488 451 505 451Q570 453 633.5 465.5Q697 478 753.0 502.0Q809 526 852.0 561.0Q895 596 919.5 643.0Q944 690 944 749Q944 792 925.5 824.0Q907 856 873.5 877.0Q840 898 793.0 908.5Q746 919 689 919Q620 919 548.0 903.0Q476 887 408.0 853.0Q340 819 279 763Q262 747 247.5 750.5Q233 754 222 766Q212 776 212.0 790.0Q212 804 227 819Q273 867 330.0 901.0Q387 935 449.0 957.0Q511 979 574.0 989.5Q637 1000 695 1000Q781 1000 845.0 982.0Q909 964 951.0 930.5Q993 897 1014.5 851.5Q1036 806 1036 750Q1036 676 1006.0 617.0Q976 558 923.0 514.0Q870 470 800.0 440.0Q730 410 650.5 394.0Q571 378 488 374ZM141 -17Q100 -17 67.5 1.5Q35 20 13.5 50.0Q-8 80 -17 112Q-23 131 -18.5 144.0Q-14 157 5 163Q24 170 35.0 164.0Q46 158 54 141Q65 117 79.0 100.0Q93 83 109.5 75.5Q126 68 146 68Q182 68 206.5 96.0Q231 124 255 198L448 800Q453 814 465.0 820.5Q477 827 499 827Q522 827 533.0 820.5Q544 814 538 797L346 199Q324 133 296.0 84.0Q268 35 230.0 9.0Q192 -17 141 -17Z" transform="translate(0.0, 72) scale(0.072, -0.072)" /><path d="M-159 -17Q-178 -17 -184.0 -5.5Q-190 6 -186.0 20.5Q-182 35 -170.0 46.5Q-158 58 -141 58Q-112 58 -73.5 77.0Q-35 96 10.0 129.5Q55 163 103.0 209.0Q151 255 199.0 309.0Q247 363 292.0 421.5Q337 480 375.5 540.0Q414 600 442.5 658.0Q471 716 487.5 769.0Q504 822 504 866Q504 881 517.0 888.5Q530 896 547.0 896.0Q564 896 577.0 888.5Q590 881 590 866Q590 820 572.0 763.0Q554 706 521.5 643.0Q489 580 445.0 514.0Q401 448 349.5 383.5Q298 319 243.0 260.0Q188 201 132.0 150.5Q76 100 23.0 62.5Q-30 25 -76.5 4.0Q-123 -17 -159 -17ZM163 -16Q123 -16 103.0 0.0Q83 16 77.5 42.0Q72 68 77.5 98.5Q83 129 92 158L305 817Q337 916 379.5 960.0Q422 1004 482 1004Q515 1004 539.5 986.5Q564 969 577.0 938.5Q590 908 590 866Q590 847 577.0 838.0Q564 829 547.0 829.0Q530 829 517.0 838.0Q504 847 504 866Q504 883 500.5 895.5Q497 908 489.5 915.0Q482 922 469 922Q456 922 443.0 911.5Q430 901 417.0 875.0Q404 849 388 802L165 111Q161 97 159.5 85.0Q158 73 162.0 66.5Q166 60 178 60Q190 60 202.0 67.0Q214 74 224.5 85.5Q235 97 245 110Q252 119 261.5 122.0Q271 125 285 115Q302 105 303.0 94.5Q304 84 299 74Q290 57 270.5 36.0Q251 15 224.5 -0.5Q198 -16 163 -16Z" transform="translate(65.592, 72) scale(0.072, -0.072)" /><path d="M169 -17Q129 -17 100.0 2.0Q71 21 55.5 56.5Q40 92 40 141Q40 186 53.0 237.5Q66 289 92.0 338.5Q118 388 157.5 429.0Q197 470 249.0 494.5Q301 519 366 519Q398 519 430.0 510.0Q462 501 490 485L491 489Q497 506 507.0 510.5Q517 515 535 515Q566 515 574.5 505.5Q583 496 576 476L455 111Q451 97 449.5 85.0Q448 73 452.5 66.5Q457 60 468 60Q481 60 492.5 67.0Q504 74 515.0 85.5Q526 97 536 110Q543 119 552.5 122.0Q562 125 575 115Q592 105 593.5 94.5Q595 84 590 74Q580 57 561.0 36.0Q542 15 515.5 -0.5Q489 -16 454 -16Q422 -16 403.5 -4.5Q385 7 377.5 25.5Q370 44 369.5 66.0Q369 88 373 110Q374 112 374.5 114.5Q375 117 375 120Q338 70 301.5 40.0Q265 10 231.5 -3.5Q198 -17 169 -17ZM130 153Q130 125 138.0 104.5Q146 84 161.0 73.5Q176 63 198 63Q232 63 270.0 90.5Q308 118 348.5 170.5Q389 223 428 298L468 417Q439 431 413.0 435.5Q387 440 362 440Q314 440 276.5 420.5Q239 401 211.5 369.0Q184 337 166.0 298.5Q148 260 139.0 222.0Q130 184 130 153Z" transform="translate(93.96, 72) scale(0.072, -0.072)" /><path d="M426 -2Q446 11 465.0 22.0Q484 33 502.5 43.5Q521 54 538.0 62.5Q555 71 569 77Q584 84 593.0 77.5Q602 71 605.0 57.5Q608 44 604.0 30.5Q600 17 589 11Q570 1 548.5 -11.0Q527 -23 505.0 -35.5Q483 -48 461.0 -62.0Q439 -76 417 -89ZM139 -504Q81 -504 46.5 -472.0Q12 -440 12 -391Q12 -350 28.5 -314.0Q45 -278 75.5 -243.5Q106 -209 149.5 -175.0Q193 -141 248 -107Q269 -93 288.5 -80.5Q308 -68 328.0 -56.0Q348 -44 369 -31L420 129Q394 94 367.0 67.0Q340 40 311.5 21.5Q283 3 254.5 -6.5Q226 -16 197 -16Q146 -16 116.5 7.5Q87 31 81.0 75.5Q75 120 96 182L169 406Q175 423 170.0 432.5Q165 442 151 442Q139 442 126.0 434.5Q113 427 98.5 410.5Q84 394 64 367Q54 354 45.0 349.5Q36 345 19 351Q-1 359 -2.5 371.5Q-4 384 4 398Q23 431 47.0 458.0Q71 485 100.5 501.0Q130 517 166 517Q200 517 220.0 505.0Q240 493 248.5 472.0Q257 451 255.5 424.5Q254 398 245 370L180 170Q169 137 169.0 112.5Q169 88 183.0 75.5Q197 63 228 63Q258 63 291.5 83.0Q325 103 359.5 139.5Q394 176 427.0 226.0Q460 276 487 337L535 483Q542 503 551.5 509.0Q561 515 580 515Q611 515 619.5 505.5Q628 496 621 476L389 -236Q365 -308 340.0 -359.5Q315 -411 285.0 -443.0Q255 -475 219.0 -489.5Q183 -504 139 -504ZM153 -427Q183 -427 210.0 -405.5Q237 -384 261.0 -341.5Q285 -299 304 -233L336 -134Q324 -141 313.0 -148.5Q302 -156 291.0 -162.5Q280 -169 269 -177Q228 -205 196.5 -231.0Q165 -257 143.5 -281.5Q122 -306 111.5 -329.5Q101 -353 101 -377Q101 -393 107.0 -404.0Q113 -415 125.0 -421.0Q137 -427 153 -427Z" transform="translate(138.744, 72) scale(0.072, -0.072)" /><path d="M203 -19Q156 -19 129.0 -0.5Q102 18 92.0 49.5Q82 81 84.5 119.0Q87 157 100 195L169 406Q175 423 170.0 432.5Q165 442 151 442Q139 442 126.0 434.5Q113 427 98.5 410.5Q84 394 64 367Q54 354 45.0 349.5Q36 345 19 351Q-1 359 -2.5 371.5Q-4 384 4 398Q23 431 47.0 458.0Q71 485 100.5 501.0Q130 517 166 517Q200 517 220.5 505.0Q241 493 249.0 472.0Q257 451 255.5 424.5Q254 398 245 370L185 184Q176 155 172.5 126.5Q169 98 180.5 79.5Q192 61 226 61Q251 61 277.5 75.5Q304 90 329.0 116.5Q354 143 376.5 179.0Q399 215 415 256L489 484Q494 501 503.0 508.5Q512 516 534 516Q566 516 573.0 506.5Q580 497 574 478L494 223Q486 199 479.5 170.5Q473 142 474.0 117.0Q475 92 488.0 76.5Q501 61 532 61Q568 61 600.5 81.5Q633 102 659.5 136.0Q686 170 705.0 211.5Q724 253 735.0 297.0Q746 341 746 380Q746 394 745.0 408.5Q744 423 742.5 437.0Q741 451 738 464Q734 483 738.0 495.0Q742 507 752.5 513.0Q763 519 779 519Q797 519 807.5 508.0Q818 497 824 471Q827 458 829.0 444.0Q831 430 832.0 415.5Q833 401 833 385Q833 337 818.5 282.0Q804 227 777.0 174.0Q750 121 711.0 77.0Q672 33 623.0 7.0Q574 -19 515 -19Q469 -19 441.0 -3.0Q413 13 399.5 38.5Q386 64 384 95Q361 60 333.0 34.0Q305 8 273.0 -5.5Q241 -19 203 -19Z" transform="translate(186.624, 72) scale(0.072, -0.072)" /><path d="M-159 -17Q-178 -17 -184.0 -5.5Q-190 6 -186.5 20.5Q-183 35 -171.0 46.5Q-159 58 -140 58Q-106 58 -69.5 81.0Q-33 104 5.5 150.5Q44 197 85.0 269.5Q126 342 170 441L227 415Q175 293 128.5 210.5Q82 128 36.0 77.5Q-10 27 -57.5 5.0Q-105 -17 -159 -17ZM399 -16Q362 -16 341.5 -3.0Q321 10 314.0 31.5Q307 53 309.5 78.0Q312 103 320 128Q327 149 339.5 179.5Q352 210 366.5 244.5Q381 279 395.0 313.5Q409 348 417 378Q425 408 418.5 418.5Q412 429 393 429Q369 429 339.5 419.0Q310 409 279.0 399.5Q248 390 217 390Q197 390 182.5 404.5Q168 419 160.5 442.0Q153 465 153 490Q153 513 160.5 534.0Q168 555 183.5 568.5Q199 582 223 582Q246 582 257.0 568.5Q268 555 268 535Q268 520 263.0 502.5Q258 485 250 469Q265 469 294.0 480.0Q323 491 359.5 502.0Q396 513 431 513Q461 513 481.5 499.0Q502 485 508.5 454.5Q515 424 501 372Q494 344 480.0 309.5Q466 275 450.5 238.0Q435 201 421.0 167.0Q407 133 399 106Q390 80 395.5 70.0Q401 60 415 60Q427 60 438.5 67.0Q450 74 460.5 85.5Q471 97 481 110Q488 119 497.0 122.0Q506 125 520 115Q537 105 538.5 94.5Q540 84 535 74Q525 57 506.0 36.0Q487 15 460.5 -0.5Q434 -16 399 -16Z" transform="translate(250.56, 72) scale(0.072, -0.072)" /><path d="M135 -16Q73 -16 54.0 28.5Q35 73 62 155L169 483Q175 503 184.5 509.0Q194 515 214 515Q245 515 253.5 505.5Q262 496 255 476L137 114Q128 87 131.5 73.5Q135 60 152 60Q164 60 175.0 66.5Q186 73 196.5 84.5Q207 96 218 110Q225 119 234.5 122.0Q244 125 257 115Q274 105 275.5 94.5Q277 84 271 74Q256 48 235.0 27.5Q214 7 189.0 -4.5Q164 -16 135 -16ZM276 669Q256 669 241.5 682.0Q227 695 227 720Q227 747 245.0 771.0Q263 795 300 795Q320 795 334.5 782.5Q349 770 349 744Q349 717 331.5 693.0Q314 669 276 669Z" transform="translate(291.456, 72) scale(0.072, -0.072)" /><path d="M-129 -17Q-144 -17 -150.5 -5.5Q-157 6 -154.5 20.5Q-152 35 -141.0 46.5Q-130 58 -112 58Q-88 58 -50.5 86.0Q-13 114 33.0 163.0Q79 212 130.0 276.5Q181 341 233.0 414.5Q285 488 334.5 565.0Q384 642 427.5 715.5Q471 789 504.5 853.5Q538 918 558 967Q565 989 575.0 994.5Q585 1000 603 1000Q635 1000 643.5 990.5Q652 981 645 961L370 109Q415 122 463.5 149.5Q512 177 565.5 220.0Q619 263 680 320Q685 326 694.5 328.0Q704 330 715 319Q727 308 726.5 299.0Q726 290 720 284Q661 225 600.0 174.5Q539 124 476.5 89.0Q414 54 348 42L338 11Q334 -2 324.0 -8.5Q314 -15 291 -15Q275 -15 261.5 -8.0Q248 -1 253 18L259 38Q233 42 211.5 52.0Q190 62 177.5 80.0Q165 98 165 121Q165 150 184.0 171.0Q203 192 237 192Q257 192 273.5 184.5Q290 177 300 165L460 662Q413 578 362.0 495.0Q311 412 258.0 336.0Q205 260 152.5 195.5Q100 131 50.0 83.5Q0 36 -45.0 9.5Q-90 -17 -129 -17ZM235 122Q235 116 240.0 111.5Q245 107 254.5 104.0Q264 101 277 100Q279 115 269.0 124.0Q259 133 248 133Q235 133 235 122Z" transform="translate(313.05600000000004, 72) scale(0.072, -0.072)" /><path d="M243 -18Q207 -18 177.0 -6.0Q147 6 123.0 27.0Q99 48 82.0 77.0Q65 106 56.0 141.0Q47 176 47 215Q47 253 55.5 294.5Q64 336 82.5 376.0Q101 416 129.0 448.5Q157 481 195.0 500.0Q233 519 282 519Q319 519 345.5 504.5Q372 490 386.0 464.5Q400 439 400 405Q400 352 372.5 300.0Q345 248 299.5 201.5Q254 155 200 117Q145 77 84.0 47.0Q23 17 -35.5 0.0Q-94 -17 -143 -17Q-157 -17 -163.5 -5.5Q-170 6 -168.0 20.5Q-166 35 -154.5 46.5Q-143 58 -122 58Q-82 58 -33.5 74.0Q15 90 65.5 117.0Q116 144 160 178Q199 207 233.0 241.5Q267 276 288.5 313.0Q310 350 310 385Q310 411 298.5 425.0Q287 439 263 439Q232 439 208.0 416.5Q184 394 168.0 360.0Q152 326 143.5 288.0Q135 250 135 218Q135 184 144.0 155.5Q153 127 170.0 106.0Q187 85 209.5 73.5Q232 62 260 62Q287 62 313.0 73.0Q339 84 364.0 103.0Q389 122 411 143Q424 156 438.5 153.5Q453 151 463 140Q475 128 477.0 115.0Q479 102 466 88Q431 49 394.5 26.0Q358 3 320.0 -7.5Q282 -18 243 -18Z" transform="translate(358.41600000000005, 72) scale(0.072, -0.072)" /><path d="M464 -19Q390 -19 331.5 5.5Q273 30 231.5 76.5Q190 123 168.0 189.0Q146 255 146 338Q146 407 162.5 482.0Q179 557 211.5 631.5Q244 706 291.5 772.0Q339 838 402.0 889.5Q465 941 543.0 970.5Q621 1000 714 1000Q776 1000 826.5 986.5Q877 973 916.0 947.0Q955 921 981 882Q990 871 985.5 862.0Q981 853 966 841Q952 831 942.0 830.5Q932 830 918 843Q883 878 830.0 896.5Q777 915 699 915Q631 915 571.0 891.0Q511 867 460.0 824.5Q409 782 368.0 726.5Q327 671 299.0 607.5Q271 544 255.5 479.0Q240 414 240 353Q240 283 254.5 229.5Q269 176 298.5 139.5Q328 103 372.5 84.5Q417 66 478 66Q518 66 553.5 77.0Q589 88 623.0 109.5Q657 131 691.0 161.5Q725 192 762 232Q774 244 785.5 240.0Q797 236 809 224Q822 210 823.5 199.5Q825 189 813 175Q748 101 686.5 58.5Q625 16 569.0 -1.5Q513 -19 464 -19Z" transform="translate(411.9840000000001, 72) scale(0.072, -0.072)" /><path d="M536 -17Q495 -17 455.0 -8.0Q415 1 375.5 13.0Q336 25 298.5 34.0Q261 43 223 43Q194 43 167.0 37.0Q140 31 114.0 19.5Q88 8 59 -8Q44 -16 28.5 -16.0Q13 -16 3 -2Q-5 10 -2.5 20.0Q0 30 14 45L814 872Q804 869 794.5 868.0Q785 867 775 867Q743 867 714.5 874.5Q686 882 660.0 892.0Q634 902 606.0 909.0Q578 916 546 916Q515 916 480.0 904.5Q445 893 409.5 872.0Q374 851 341 821Q325 807 311.5 808.0Q298 809 285 823Q271 837 272.0 850.0Q273 863 288 878Q332 917 374.5 944.5Q417 972 460.5 986.5Q504 1001 552 1001Q592 1001 623.5 993.0Q655 985 683.0 974.0Q711 963 740.0 955.0Q769 947 803 947Q843 947 875.0 955.5Q907 964 944 983Q956 990 966.5 989.0Q977 988 987 977Q998 966 997.5 955.0Q997 944 978 925L202 120Q214 124 228.0 125.5Q242 127 257 127Q296 127 332.0 117.5Q368 108 404.0 96.5Q440 85 476.5 75.5Q513 66 552 66Q603 66 646.5 86.0Q690 106 726.5 142.5Q763 179 792 230Q800 243 812.5 245.5Q825 248 842 240Q862 230 866.5 218.0Q871 206 862 191Q822 122 774.0 75.5Q726 29 667.0 6.0Q608 -17 536 -17Z" transform="translate(473.1840000000001, 72) scale(0.072, -0.072)" /></g></svg>
